packages/ffe-icons/icons/open/400/sm/collapse_content.svg

<svg xmlns="http://www.w3.org/2000/svg" height="20" viewBox="0 -960 960 960" width="20"><path d="M360-360H228q-15.3 0-25.65-10.289-10.35-10.29-10.35-25.5Q192-411 202.35-421.5 212.7-432 228-432h168q15.3 0 25.65 10.35Q432-411.3 432-396v168q0 15.3-10.289 25.65-10.29 10.35-25.5 10.35Q381-192 370.5-202.35 360-212.7 360-228v-132Zm240-240h132q15.3 0 25.65 10.289 10.35 10.29 10.35 25.5Q768-549 757.65-538.5 747.3-528 732-528H564q-15.3 0-25.65-10.35Q528-548.7 528-564v-168q0-15.3 10.289-25.65 10.29-10.35 25.5-10.35Q579-768 589.5-757.65 600-747.3 600-732v132Z"/></svg>

<svg xmlns="http://www.w3.org/2000/svg" height="20" viewBox="0 -960 960 960" width="20"><path d="M360-360H228q-15.3 0-25.65-10.29Q192-380.58 192-395.79t10.35-25.71Q212.7-432 228-432h168q15.3 0 25.65 10.35Q432-411.3 432-396v168q0 15.3-10.29 25.65Q411.42-192 396.21-192t-25.71-10.35Q360-212.7 360-228v-132Zm240-240h132q15.3 0 25.65 10.29Q768-579.42 768-564.21t-10.35 25.71Q747.3-528 732-528H564q-15.3 0-25.65-10.35Q528-548.7 528-564v-168q0-15.3 10.29-25.65Q548.58-768 563.79-768t25.71 10.35Q600-747.3 600-732v132Z"/></svg>
